rospo-icon-theme-classic-common/48x48/apps/anoise.svg

<svg height="48" viewBox="0 0 48 48" width="48" xmlns="http://www.w3.org/2000/svg"><circle cx="24" cy="25" opacity=".2" r="20"/><circle cx="24" cy="24" fill="#ff8a18" r="20"/><path d="m24 4a20 20 0 0 0 -20 20 20 20 0 0 0  .0215.582 20 20 0 0 1 19.9785-19.582 20 20 0 0 1 19.979 19.418 20 20 0 0 0  .021-.418 20 20 0 0 0 -20-20z" fill="#fff" opacity=".2"/><circle cx="24" cy="25" opacity=".2" r="14"/><circle cx="24" cy="24" fill="#fff" r="14"/><path d="m21.515625 12.515625-2.830078 2.828125 8.486328 8.484375-8.486328 8.486328 2.830078 2.828125 8.484375-8.486328 2.828125-2.828125-2.828125-2.828125z" fill="#3f3f3f"/></svg>

<svg xmlns="http://www.w3.org/2000/svg" width="48" height="48" version="1.1" viewBox="0 0 48 48">
 <circle style="opacity:0.2" cx="24" cy="25" r="20"/>
 <circle style="fill:#ff8a18" cx="24" cy="24" r="20"/>
 <path style="opacity:0.2;fill:#ffffff" d="M 24 4 A 20 20 0 0 0 4 24 A 20 20 0 0 0 4.0215 24.582 A 20 20 0 0 1 24 5 A 20 20 0 0 1 43.979 24.418 A 20 20 0 0 0 44 24 A 20 20 0 0 0 24 4 z"/>
 <circle style="opacity:0.2" cx="24" cy="25" r="14"/>
 <circle style="fill:#ffffff" cx="24" cy="24" r="14"/>
 <path style="fill:#3f3f3f" d="M 21.515625 12.515625 L 18.685547 15.34375 L 27.171875 23.828125 L 18.685547 32.314453 L 21.515625 35.142578 L 30 26.65625 L 32.828125 23.828125 L 30 21 L 21.515625 12.515625 z"/>
</svg>
